!!!COM: Schubert, Franz
!!!CNT: Deutscher
!!!TXO: Deutsch
!!!OTL: "Erstarrung"
!!!OPR: Winterreise
!!!LYR: Mu2ller, Wilhelm
!!!OPS: Opus 89
!!!ONM: No. 4
!!!ODT: 1827/
!!NB: Vocal melody only encoded.
**kern	**silbe
*clefG2	*
*k[b-e-a-]	*
*M4/4	*
*MM[geschwind]	*
!! ziemlich schnell (nicht zu geschwind)
=7	=7
2r	.
4r	.
{4g	{Ich
=8	=8
4g	such'
4g	im
4g	Schnee
4cc	ver-
=9	=9
4ee-	-ge-
2dd	-bens
4cc	nach
=10	=10
4bn	ih-
4bn	-rer
4cc	Trit-
4dd	-te
=11	=11
(4g	Spur,
2cc)}	|}
{4g	{wo
=12	=12
4g	sie
8a-	an
8g	|
4g	mei-
8cc	-nem
8ee-	|
=13	=13
4gg	Ar-
(4.ff	-me
8ee-)	|
8dd	durch-
8cc	|
=14	=14
4bn	-strich
4bn	die
4cc	gru2-
4dd	-ne
=15	=15
(4g	Flur,
2cc)}	|}
{4ee-	{ich
=16	=16
4dd	such'
4ff	im
8ff	Schnee
8ee-	|
4dd	ver-
=17	=17
2ee-	-ge-
4cc	-bens
4ee-	nach
=18	=18
4dd	ih-
4ff	-rer
8ff	Trit-
8ee-	|
4dd	-te
=19	=19
2.ee-}	Spur,}
{4dd	{wo
=20	=20
4cc	sie
4cc	an
8cc	mei-
8b-	|
4b-	-nem
=21	=21
(4.b-	Ar-
8a-)	|
4g	-me
4g	durch-
=22	=22
4cc	-strich
8b-	die
8a-	|
4g	gru2-
4f	-ne
=23	=23
2g}	Flur.}
2r	.
=24	=24
2r	.
4r	.
{4f#	{Ich
=25	=25
4g	will
4g	den
4.dd	Bo-
8g	-den
=26	=26
(8g	ku2s-
8f#)	|
4f#	-sen,
4r	.
4f#	durch-
=27	=27
4f#	-drin-
8an	-gen
8cc	|
4.ee-	Eis
8f#	und
=28	=28
4g}	Schnee}
{4g	{mit
[2ffn	mei-
=29	=29
4ffn]	|
4aa-	-nen
4gg	hei-
4ff	-ssen
=30	=30
(4ee-	Thra2-
4dd)	|
4cc	-nen,
4b-	bis
=31	=31
2.a-	ich
4a-	die
=32	=32
4a-	Er-
4g	-de,
4r	.
4g	die
=33	=33
2.bn	Er-
4bn	-de
=34	=34
2.dd}	seh',}
{4dd	{ich
=35	=35
4.ee-	will
8dd	den
4bn	Bo-
4cc	-den
=36	=36
4cc#	ku2s-
2dd	-sen,
4dd	durch-
=37	=37
4.ee-	-drin-
8dd	-gen
4bn	Eis
4cc	und
=38	=38
4dd}	Schnee}
{4dd	{mit
[2ff	mei-
=39	=39
4ff]	|
4aa-	-nen
4gg	hei-
4ff	-ssen
=40	=40
(4ee-	Thra2-
4dd)	|
4cc	-nen,
4b-	bis
=41	=41
2.a-	ich
4a-	die
=42	=42
4a-	Er-
4g	-de,
4r	.
4g	die
=43	=43
2.bn	Er-
4bn	-de
=44	=44
2cc}	seh'.}
2r	.
=47	=47
2r	.
4r	.
{4cc	{Wo
=48	=48
4.dd	find'
8cc	ich
4b-	ei-
4a-	-ne
=49	=49
(8a-	Blu2-
8g)	|
4g	-the,
4r	.
4dd-	wo
=50	=50
4.ee-	find'
8dd-	ich
4cc	gru2-
4b-	-nes
=51	=51
(4b-	Gras?
4a-)}	|}
4r	.
{4cc	{die
=52	=52
4.gg	Blu-
8ee-	-men
4dd-	sind
4cc	er-
=53	=53
(4.ff	-stor-
8ee-)	|
4dd-	-ben,
4cc	der
=54	=54
4.ee-	Ra-
8dd-	-sen
4b-	sieht
4g	so
=55	=55
2cc}	blass,}
4r	.
{4cc	{die
=56	=56
4.gg-	Blu-
8ee-	-men
4dd-	sind
4cc	er-
=57	=57
(4.gg-	-stor-
8ee-)	|
4dd-	-ben,
4cc	der
=58	=58
4.ee-	Ra-
8dd-	-sen
4b-	sieht
4cc	so
=59	=59
2a-}	blass.}
4r	.
{4a-	{Wo
=60	=60
4g	find'
4g	ich
4a-	ei-
4a-	-ne
=61	=61
(8cc	Blu2-
8bn)	|
4bn	-the?
4r	.
4bn	wo
=62	=62
4bn	find'
4bn	ich
4cc	gru2-
4cc	-nes
=63	=63
(2ee-	Gras?
2dd)}	|}
=64	=64
2r	.
4r	.
{4g	{Soll
=65	=65
4g	denn
4g	kein
4.g	An-
8cc	-ge-
=66	=66
4ee-	-den-
2dd	-ken
4cc	ich
=67	=67
4bn	neh-
4bn	-men
4cc	mit
4dd	von
=68	=68
(4g	hier?
2cc)}	|}
{4g	{Wenn
=69	=69
4g	mei-
8a-	-ne
8g	|
4g	Schmer-
8cc	-zen
8ee-	|
=70	=70
4gg	schwei-
(4.ff	-gen,
8ee-)	|
8dd	wer
8cc	|
=71	=71
4bn	sagt
4bn	mir
4cc	dann
4dd	von
=72	=72
(4g	ihr?
2cc)}	|}
{4ee-	{Soll
=73	=73
4dd	denn
4ff	kein
(8ff	An-
8ee-)	|
4dd	-ge-
=74	=74
2ee-	-den-
4cc	-ken
4ee-	ich
=75	=75
4.dd	neh-
8ff	-men
(8ff	mit
8ee-)	|
4dd	von
=76	=76
2ee-}	hier?}
4r	.
{4dd	{Wenn
=77	=77
4cc	mei-
4cc	-ne
(8cc	Schmer-
8b-)	|
4b-	-zen
=78	=78
(4.b-	schwei-
8a-)	|
4g	-gen,
4g	wer
=79	=79
4cc	sagt
8b-	mir
8a-	|
4g	dann
4f	von
=80	=80
2g}	ihr?}
2r	.
=81	=81
2r	.
4r	.
{4f#	{Mein
=82	=82
4g	Herz
4g	ist
4.dd	wie
8g	er-
=83	=83
4g	-fro-
4f#	-ren,
4r	.
4f#	kalt
=84	=84
4f#	starrt
8an	ihr
8cc	|
4.ee-	Bild
8f#	da-
=85	=85
4g}	-rin:}
{4dd	{schmilzt
[2ffn	je
=86	=86
4ffn]	|
4aa-	das
4gg	Herz
4ff	mir
=87	=87
(4ee-	wie-
4dd)	|
4cc	-der,
4b-	fliesst
=88	=88
2.a-	auch
4a-	ihr
=89	=89
(4a-	Bild,
2g)	|
4g	ihr
=90	=90
2.bn	Bild
4bn	da-
=91	=91
2.dd}	-hin;}
{4dd	{mein
=92	=92
4.ee-	Herz
8dd	ist
4bn	wie
4cc	er-
=93	=93
4cc#	-fro-
4dd	-ren,
4r	.
4dd	kalt
=94	=94
4.ee-	starrt
8dd	ihr
4bn	Bild
4cc	da-
=95	=95
4dd}	-rin:}
{4dd	{schmilzt
[2ff	je
=96	=96
4ff]	|
4aa-	das
4gg	Herz
4ff	mir
=97	=97
(4.ee-	wie-
8dd)	|
4cc	-der,
4b-	fliesst
=98	=98
2.a-	auch
4a-	ihr
=99	=99
(4a-	Bild
2g)	|
4g	ihr
=100	=100
2.bn	Bild
4bn	da-
=101	=101
[1dd	-hin,
=102	=102
4dd]	|
4ff	ihr
(8ff	Bild
4ee-)	|
8dd	da-
=103	=103
2.cc}	-hin.}
4r	.
*-	*-
